X:1
T:Rock The Cradle, Joe
T:Simple Version
C:Unknown
M:4/4
L:1/4
Q:1/4=100
K:D
|:F|"D"A z F z|A/2F/2 A F z|A/2F/2 A B A|"Bm"F2 D/2E/2|\
"D"F E D "G"G|"D"F E D E/2F/2|
"G"G F "A"E z|1"D"D z z:|2"D"D z z z|:"A"A, B, =D z|\
"D"D E F z|"G"G G G A|"D"F z z z|
"A"A, B, =D z|"D"D E F z|"G"G F "A"E z|1"D"D z z:|2"D"D z z|

